X:1
T:Caprice No. 21
T:Caprice No. 21
T:Op. 20
T:Luigi Legnani (1790 - 1877)
C:Luigi Legnani
%%score ( 1 2 )
L:1/8
Q:1/4=140
M:4/4
K:A
V:1 treble-8 nm="Classical Guitar" snm="Guit."
V:2 treble-8 
V:1
"^Allegro giusto"!mf! (!>!e/f/)g/a/ b/c'/d'/ | e'2 z2 e2 z2 | %2
 f/(d/B/)G/ z2 z/ (!>!e/^d/)e/ f/g/a/b/ | c'2 z2 f(!>!d'/c'/) (!>!e'/d'/)c'/b/ | %4
 a2 z2 z/ (!>!e/f/)g/ a/b/c'/d'/ | e'2 z2 e2 z2 | f/(d/B/)G/ z2 z/ (!>!e'/^d'/)(=d'/ c'/)(b/a/)g/ | %7
 (!>!b/a/)e/c/ (!>!g/f/)d/B/ (!>!f/e/)c/A/ !>!e/(d/B/)G/ | z4 z c/e/ a/c'/e'/c'/ | %9
 b2 z2 z !>!f/g/ a/b/c'/^d'/ | e'2 z2 z c/e/ a/c'/e'/c'/ | b2 z2 z (!>!a/g/) (f/e/)^d/f/ | %12
 e2 z2 z/ (!>!e/f/)g/ a/b/c'/d'/ | e'2 z2 e2 z2 | f/(d/B/)G/ z2 z/ (!>!e/^d/)e/ f/g/a/b/ | %15
 c'2 z2 f(!>!d'/c'/) (!>!e'/d'/)c'/b/ | a2 z2 z/ (!>!e/f/)g/ a/b/c'/d'/ | e'2 z2 e2 z2 | %18
 f/(d/B/)G/ z2 z/ (!>!e'/^d'/)(=d'/ c'/)(b/a/)g/ | %19
 (!>!b/a/)e/c/ (!>!g/f/)d/B/ (!>!f/e/)c/A/ !>!e/(d/B/)G/ | %20
 A2 e'/^d'/=d'/c'/ =c'/b/^a/=a/ g/=g/f/=f/ | e2 [gd']2 [ac']2 [gb]2 | [ac']2 z2 z4 | %23
 z2 [eb]2 [ea]2 [eg]2 | [ea]2 z2 z4 | z2!f! [EBd]2 [EAc]2 [DGB]2 | [CEA]8 |] %27
V:2
 z/ z z2 | z/ (!>!E/F/)G/ A/B/c/d/ z/ (!>!A,/C/)E/ A/c/e/!>!^e/ | z2 (E/D/)(B,/G,/) E,2 z2 | %3
 A,/(A/G/)A/ B/c/d/e/ D2 z2 | E,(A/G/) (F/E/)(D/C/) B,2 z2 | %5
 z/ (!>!E/F/)G/ A/B/c/d/ z/ (!>!A,/C/)E/ A/c/e/!>!^e/ | z2 (E/D/)(B,/G,/) E,2 z2 | A,2 D2 E,2 E,2 | %8
 (!>!d/B/)G/(E/ D/)B,/(G,/E,/) A,2 z2 | z (!>!B,/C/) (^D/E/)F/G/ A2 z2 | %10
 z !>!E/G/ B/e/g/b/ A,2 z2 | z (!>!B,/C/) (^D/E/)F/G/ A2 z2 | %12
 z/ (!>!E/^D/)(C/ B,/)(A,/G,/)(F,/ E,2) z2 | z/ (!>!E/F/)G/ A/B/c/d/ z/ (!>!A,/C/)E/ A/c/e/!>!^e/ | %14
 z2 (E/D/)(B,/G,/) E,2 z2 | A,/(A/G/)A/ B/c/d/e/ D2 z2 | E,(A/G/) (F/E/)(D/C/) B,2 z2 | %17
 z/ (!>!E/F/)G/ A/B/c/d/ z/ (!>!A,/C/)E/ A/c/e/!>!^e/ | z2 (E/D/)(B,/G,/) E,2 z2 | A,2 D2 E,2 E,2 | %20
 A,2 z2 z4 | z2 e2 e2 e2 | e2 e/^d/=d/c/ =c/B/^A/=A/ G/=G/F/=F/ | E2 d2 c2 B2 | %24
 c2 E/^D/=D/C/ =C/B,/^A,/=A,/ G,/=G,/F,/=F,/ | E,2 G,2 A,2 E,2 | A,8 |] %27

